X: 1421
T: Maurice Casey's Fancy
M:C|
L:1/8
N:"collected by Casey"
B:O'Neill's 1421
Z:"Transcribed by Bob Safranek, rjs@gsp.org"
K:Am
AcBc    AGE^F | G2 (BG) edBd | eaa^f       gfed | AcBc  AGE^G |
AcBc    AGE^F | G2 (BG) edBd | eaa^f       gfed | AcB^G A2 A2 ||
a2 (ba) gede  | gedB   ^GABd | eaa^f       gedB | AcB^G A2 A2 |
a2 (ba) gede  | gedB   ^GABd | a^f ((3gfe) fdec | dBgB  A2 A2 |]


